X: 4270
T: Bob Wi' The One Horn, The
R: reel
M: 4/4
K: Gminor
|DGGF DGGA|(3FFF AF cFAF|DGGF DGGg|fdcA BG (3GGG:|
g2 bg dgbg|(3fff af cfaf|(3ggg bg dgbg|agfa g2 ga|
(3bag (3agf gefd|AFFA cAFA|DGGF DGGg|fdcA BG (3GGG||

